svgs/sharp-light/stopwatch.svg

<svg xmlns="http://www.w3.org/2000/svg" viewBox="0 0 448 512"><!--! Font Awesome Pro 6.6.0 by @fontawesome - https://fontawesome.com License - https://fontawesome.com/license (Commercial License) Copyright 2024 Fonticons, Inc. --><path d="M128 0L320 0l0 32-80 0 0 64.6c49.4 3.8 94 24.8 127.7 57l37-37L416 105.4 438.6 128l-11.3 11.3-38.2 38.2C416 212.6 432 256.4 432 304c0 114.9-93.1 208-208 208S16 418.9 16 304c0-109.5 84.6-199.2 192-207.4L208 32l-80 0 0-32zM48 304a176 176 0 1 0 352 0A176 176 0 1 0 48 304zm192-96l0 112 0 16-32 0 0-16 0-112 0-16 32 0 0 16z"/></svg>

<svg xmlns="http://www.w3.org/2000/svg" viewBox="0 0 448 512"><!--! Font Awesome Pro 6.4.2 by @fontawesome - https://fontawesome.com License - https://fontawesome.com/license (Commercial License) Copyright 2023 Fonticons, Inc. --><path d="M128 0H320V32H240V96.6c49.4 3.8 94 24.8 127.7 57l37-37L416 105.4 438.6 128l-11.3 11.3-38.2 38.2C416 212.6 432 256.4 432 304c0 114.9-93.1 208-208 208S16 418.9 16 304c0-109.5 84.6-199.2 192-207.4V32H128V0zM48 304a176 176 0 1 0 352 0A176 176 0 1 0 48 304zm192-96V320v16H208V320 208 192h32v16z"/></svg>
